X: 31
T: The BYRON STRATHSPEY
C: Andrew Rankine 1976
R: strathspey
B: "The Complete Andrew Rankine Collection of Scottish Country Dance Tunes" p.37
Z: 2017 John Chambers <jc:trillian.mit.edu>
M: none
N: The time signature should probably be "M:C".
L: 1/8
K: A
E>A |\
"A"c2c2 "E7"B>cd<B | "A"A4- A2"A7"A>G | "D"F>^EF>G "Cdim"A>BA<F | "A"E4- "E7"E2E>A |
"A"c2c2 "E"B>cd<B | "F#m"A2a2 "D"f>ga<f | "A"e>fe<c "E7"B>cd>B | "A"A4- A2 ||
a>g |\
"D"f>^ef>g a>ga>f | "A"e4- e2c2 | "Bm"B>^AB>c "E7"d>cd<e | "A"c4- "A7"c2c>B |
"D"A>GA>G "Cdim"A>BA<F | "A"E>^DE>A "F#8"c>ed<c | "B7"B>^AB>c "E7"d>BG<B | "A"A4- A2 |]

%%sep 1 1 500

